!!!!SEGMENT: pl-kk--kk-i-503--002_anonim--veni-sancte-spiritus.krn
!!!cenid: 18xx:1347
!!!COM: Anonim
!!!COM-rismID: pe30004985
!!!CDT:
!!!CNT:
!!!OTL: Veni sancte spiritus
!!!PDT:
!!!AGN: Sacred
!!!SMS-siglum: PL-Kk
!!!SMS-shelfmark: Kk.I.503
!!!SMS-shelfwork: 002 W
!!!SMS-variant:
!!!SMS-altvar:
!!!NIFC-rismSourceID: 1001137611
!!!NIFC-islandoraID: pl-kk:14689
!!!URL-pdf-islandora: https://repozytorium.nifc.pl/islandora/object/pl-kk%3A14689/datastream/PDF/view
!!!URL-scan: https://polish.musicsources.pl/pl/lokalizacje/galeria/rekopisy/6112 @EN{Scan on Polish Music Sources Website} @PL{Skany w portalu Dziedzictwo Muzyki Polskiej w otwartym dostępie}
!!!ONB-nifc: UWAGA: w zbiorze Veni Sancte Spiritus (001) i Veni Sancte Spiritus No. 2. (002)
!!!AIN: 1 alto 1 empty 1 organ 1 soprn 1 tenor
!!!key:
**kern	**text	**dynam	**kern	**dynam	**kern	**text	**dynam	**kern	**text	**dynam	**kern	**text	**dynam	**kern	**text	**dynam
*part5	*part5	*part5	*part5	*part5	*part4	*part4	*part4	*part3	*part3	*part3	*part2	*part2	*part2	*part1	*part1	*part1
*staff6	*staff6	*staff6	*staff5	*staff5	*staff4	*staff4	*	*staff3	*staff3	*	*staff2	*staff2	*	*staff1	*staff1	*
*Iorgan	*	*	*Iempty	*	*Iempty	*	*	*Itenor	*	*	*Ialto	*	*	*Isoprn	*	*
*I"Organo	*	*	*	*	*I"Basſo	*	*	*I"Tenor	*	*	*I"Alto	*	*	*I"Soprano	*	*
*I'org	*	*	*	*	*I'B	*	*	*I'T	*	*	*I'A	*	*	*I'S	*	*
*group2	*	*	*group2	*	*group1	*	*	*group1	*	*	*group1	*	*	*group1	*	*
*clefF4	*	*	*clefG2	*	*clefF4	*	*	*clefC4	*	*	*clefC3	*	*	*clefG2	*	*
*k[b-e-]	*	*	*k[b-e-]	*	*k[b-e-]	*	*	*k[b-e-]	*	*	*k[b-e-]	*	*	*k[b-e-]	*	*
*B-:	*	*	*B-:	*	*B-:	*	*	*B-:	*	*	*B-:	*	*	*B-:	*	*
*M4/4	*	*	*M4/4	*	*M4/4	*	*	*M4/4	*	*	*M4/4	*	*	*M4/4	*	*
*met(c)	*	*	*met(c)	*	*met(c)	*	*	*met(c)	*	*	*met(c)	*	*	*met(c)	*	*
=1	=1	=1	=1	=1	=1	=1	=1	=1	=1	=1	=1	=1	=1	=1	=1	=1
*2\right	*	*	*2\right	*	*2\right	*	*	*2\right	*	*	*2\right	*	*	*2\right	*	*
!	!	!	!	!	!	!	!	!LO:TX:a:t=d	!	!	!	!	!	!	!	!
!	!	!	!LO:TX:a:B:t=Largo	!	!LO:TX:a:B:t=Largo	!	!	!LO:TX:a:B:t=Largo.	!	!	!LO:TX:a:B:t=Largo	!	!	!LO:TX:a:B:t=Largo	!	!
2B-\ 2d	Ve-	.	2f/ 2b-	.	2B-\	Ve-	.	2d\	Ve-	.	2f\	Ve-	.	2b-/	Ve-	.
!	!	!	!	!	!	!	!	!LO:TX:a:t=b	!	!	!LO:TX:a:t=P:problem=4\right&colon; global	!	!	!	!	!
!	!	!	!	!	!	!	!	!LO:TX:a:t=P:problem=4\right&colon; global	!	!	!	!	!	!	!	!
4BB-\ 4B-	-ni	.	4d/ 4f	.	4BB-/	-ni	.	4B-\	-ni	.	4d\	-ni	.	4f/	-ni	.
4r	.	.	4r	.	4r	.	.	4r	.	.	4r	.	.	4r	.	.
=2	=2	=2	=2	=2	=2	=2	=2	=2	=2	=2	=2	=2	=2	=2	=2	=2
*	*	*	*^	*	*	*	*	*	*	*	*	*	*	*	*	*
!	!	!	!	!	!	!	!	!	!LO:TX:a:t=es	!	!	!	!	!	!	!	!
2A\ 2e-	Ve-	.	2cc/	2f/	.	2A\	Ve-	.	2e-\	ve-	.	2f\	Ve-	.	2cc\	Ve-	.
!	!	!	!	!	!	!LO:TX:a:t=P:problem=4\right&colon; global	!	!	!LO:TX:a:t=c	!	!	!	!	!	!	!	!
4A\ 4c	-ni	.	4f/	4e-\	.	4A\	-ni	.	4c\	-ni	.	4e-\	-ni	.	4f/	-ni	.
4r	.	.	4r	4ryy	.	4r	.	.	4r	.	.	4r	.	.	4r	.	.
*	*	*	*v	*v	*	*	*	*	*	*	*	*	*	*	*	*	*
=3	=3	=3	=3	=3	=3	=3	=3	=3	=3	=3	=3	=3	=3	=3	=3	=3
!	!	!	!	!	!	!	!	!LO:TX:a:t=d	!	!	!	!	!	!LO:TX:a:t=P:problem=4\right&colon; global	!	!
4B-\ 4d	ve-	.	4f\ 4dd	.	4B-\	ve-	.	4d\	ve-	.	4f\	ve-	.	4dd\	ve-	.
!	!	!	!	!	!	!	!	!LO:TX:a:t=b	!	!	!	!	!	!	!	!
4D\ 4B-	-ni	.	4f\ 4b-	.	4D\	-ni	.	4B-\	-ni	.	4f\	-ni	.	4b-/	-ni	.
!	!	!	!	!	!	!	!	!LO:TX:a:t=b	!	!	!	!	!	!	!	!
4E-\ 4B-	San-	.	4e-\ 4g	.	4E-\	San-	.	4B-\	san-	.	4e-\	San-	.	4g/	San-	.
!	!	!	!	!	!	!	!	!LO:TX:a:t=g	!	!	!	!	!	!	!	!
4C\ 4G	-cte	.	4e-\ 4cc	.	4C\	-cte	.	4G\	-cte	.	4e-\	-cte	.	4cc\	-cte	.
=4	=4	=4	=4	=4	=4	=4	=4	=4	=4	=4	=4	=4	=4	=4	=4	=4
!	!	!	!	!	!	!	!	!LO:TX:a:t=d	!	!	!	!	!	!	!	!
4.F\ 4.d	Spi-	.	4.f\ 4.b-	.	4.F\	Spi-	.	4.d\	Spi-	.	4.f\	Spi-	.	4.b-/	Spi-	.
!	!	!	!	!	!	!	!	!LO:TX:a:t=d	!	!	!LO:TX:a:t=P:problem=8\right&colon; global	!	!	!	!	!
!	!	!	!	!	!LO:TX:a:t=P:problem=8\right&colon; global	!	!	!LO:TX:a:t=P:problem=8\right&colon; global	!	!	!	!	!	!	!	!
8F\ 8d	-ri-	.	8f\ 8b-	.	8F\	-ri-	.	8d\	-ri-	.	8f\	-ri-	.	8b-/	-ri-	.
!	!	!	!	!	!	!	!	!LO:TX:a:t=c	!	!	!	!	!	!	!	!
2F\ 2c	-tus	.	2f;/ 2a	.	2F;\	-tus	.	2c;\	-tus	.	2f;\	-tus	.	2a;/	-tus	.
=5	=5	=5	=5	=5	=5	=5	=5	=5	=5	=5	=5	=5	=5	=5	=5	=5
!	!	!	!	!	!	!	!	!LO:TX:a:t=a	!	!	!	!	!	!	!	!
2F\ 2A	Rep-	.	2c/ 2cc	.	2F\	Rep-	.	2A\	Rep-	.	2c\	re-	.	2cc\	Re-	.
!	!	!	!	!	!	!	!	!LO:TX:a:t=a	!	!	!	!	!	!	!	!
4F\ 4A	-ple	.	4c/ 4cc	.	4F\	-ple	.	4A\	-ple	.	4c\	-ple	.	4cc\	-ple	.
!	!	!	!	!	!	!	!	!LO:TX:a:t=a	!	!	!	!	!	!	!	!
4F\ 4A	Tu-	.	4c/ 4cc	.	4F\	Tu-	.	4A\	Tu-	.	4c\	tu-	.	4cc\	tu-	.
!LO:LB:g=original	!	!	!LO:LB:g=original	!	!LO:LB:g=original	!	!	!	!	!	!LO:LB:g=original	!	!	!	!	!
=6	=6	=6	=6	=6	=6	=6	=6	=6	=6	=6	=6	=6	=6	=6	=6	=6
*	*	*	*^	*	*	*	*	*	*	*	*	*	*	*	*	*
!	!	!	!	!	!	!	!	!	!LO:TX:a:t=g	!	!	!	!	!	!	!	!
2En\ 2G	-o-	.	4.cc/	2c\	.	2En\	-o-	.	2G/	-o-	.	2c\	-o-	.	(4.cc\	-o-	.
!	!	!	!	!	!	!	!	!	!	!	!	!	!	!	!LO:TX:a:t=P:problem=8\right&colon; global	!	!
.	.	.	8b-/	.	.	.	.	.	.	.	.	.	.	.	8b-\)	.	.
!	!	!	!	!	!	!	!	!	!LO:TX:a:t=a	!	!	!	!	!	!	!	!
2F\ 2A	-rum	.	2a/	2c\	.	2F\	-rum	.	2A/	-rum	.	[4c\	-rum	.	2a\	-rum	.
.	.	.	.	.	.	.	.	.	.	.	.	4c\]	.	.	.	.	.
*	*	*	*v	*v	*	*	*	*	*	*	*	*	*	*	*	*	*
!	!	!	!	!	!	!	!	!LO:LB:g=original	!	!	!	!	!	!LO:LB:g=original	!	!
=7	=7	=7	=7	=7	=7	=7	=7	=7	=7	=7	=7	=7	=7	=7	=7	=7
!	!	!	!	!	!	!	!	!LO:TX:a:t=a	!	!	!	!	!	!	!	!
2D\ 2A	cor-	.	2f/ 2a	.	2D\	cor-	.	2A\	cor-	.	2f\	cor-	.	2a/	cor-	.
!	!	!	!	!	!	!	!	!LO:TX:a:t=a	!	!	!	!	!	!	!	!
4D\ 4A	-da	.	4f/ 4a	.	4D\	-da	.	4A\	-da	.	4f\	-da	.	4a/	-da	.
!	!	!	!	!	!	!	!	!LO:TX:a:t=a	!	!	!	!	!	!	!	!
4D\ 4A	fi-	.	4f/ 4a	.	4D\	fi-	.	4A\	fi-	.	4f\	fi-	.	4a/	fi-	.
=8	=8	=8	=8	=8	=8	=8	=8	=8	=8	=8	=8	=8	=8	=8	=8	=8
!	!	!	!	!	!	!	!	!LO:TX:a:t=a	!	!	!	!	!	!	!	!
2C#X\ 2A	-de-	.	4.en/ 4.a	.	2C#X/	-de-	.	2A\	-de-	.	4.en\	-de-	.	4.a/	-de-	.
.	.	.	8e/ 8g	.	.	.	.	.	.	.	8e\	-li-	.	8g/	-li-	.
!	!	!	!	!	!	!	!	!LO:TX:a:t=a	!	!	!	!	!	!	!	!
4D\ 4A	-lium	.	4d/ 4f	.	4D/	-lium	.	4A\	-lium	.	4d\	-um	.	4f/	-um	.
!	!	!	!	!	!	!	!	!LO:TX:a:t=b	!	!	!	!	!	!	!	!
4BB-\ 4B-	et	.	4d/ 4f	.	4BB-/	et	.	4B-\	et	.	4d\	et	.	4f/	et	.
=9	=9	=9	=9	=9	=9	=9	=9	=9	=9	=9	=9	=9	=9	=9	=9	=9
!	!	!	!	!	!	!	!	!LO:TX:a:t=b	!	!	!	!	!	!	!	!
4E-X\ 4B-	Tu-	.	4e-X/ 4g	.	4E-X\	Tu-	.	4B-\	Tu-	.	4e-X\	Tu-	.	4g/	Tu-	.
!	!	!	!	!	!	!	!	!LO:TX:a:t=b	!	!	!	!	!	!	!	!
8E-\ 8B-	.	.	8e-/ 8g	.	8E-\	-i	.	8B-\	-i	.	8e-\	-i	.	8g/	-i	.
!	!	!	!	!	!	!	!	!LO:TX:a:t=b	!	!	!	!	!	!	!	!
8E-\ 8B-	-a	.	8e-/ 8g	.	8E-\	a-	.	8B-\	a-	.	8e-\	a-	.	8g/	a-	.
!	!	!	!	!	!	!	!	!LO:TX:a:t=f	!	!	!	!	!	!	!	!
4C\ 4F	mo-	.	4e-/ 4a	.	4C/	-mo-	.	4F/	-mo-	.	4e-\	-mo-	.	4a/	-mo-	.
!	!	!	!	!	!	!	!	!LO:TX:a:t=f	!	!	!	!	!	!	!	!
4C\ 4F	-ris	.	4e-/ 4a	.	4C/	-ris	.	4F/	-ris	.	4e-\	-ris	.	4a/	-ris	.
=10	=10	=10	=10	=10	=10	=10	=10	=10	=10	=10	=10	=10	=10	=10	=10	=10
!	!	!	!	!	!	!	!	!LO:TX:a:t=f	!	!	!	!	!	!	!	!
2BB-\ 2F	i-	.	2d/ 2b-	.	2BB-/	i-	.	2F/	i-	.	2d\	i-	.	2b-\	i-	.
!	!	!	!	!	!	!	!	!LO:TX:a:t=a	!	!	!	!	!	!	!	!
4F\ 4A	-gnem	.	4f/ 4cc	.	4F\	-gnem	.	4A\	-gnem	.	4f\	-gnem	.	4cc\	-gnem	.
!	!	!	!	!	!	!	!	!LO:TX:a:t=a	!	!	!	!	!	!	!	!
4F\ 4A	in	.	4f/ 4cc	.	4F\	in	.	4A\	in	.	4f\	in	.	4cc\	in	.
!	!	!	!	!	!LO:LB:g=original	!	!	!	!	!	!LO:LB:g=original	!	!	!	!	!
=11	=11	=11	=11	=11	=11	=11	=11	=11	=11	=11	=11	=11	=11	=11	=11	=11
*^	*	*	*^	*	*	*	*	*	*	*	*	*	*	*	*	*
!	!	!	!	!	!	!	!	!	!	!LO:TX:a:t=b	!	!LO:TX:a:t=P:global:problem=ozn. dynamiki na środku pięciolinii	!	!	!	!LO:TX:a:t=P:global:problem=ozn. dynamiki na środku pięciolinii	!	!
!	!	!	!	!	!	!	!LO:TX:a:t=P:global:problem=ozn. dynamiki na środku pięciolinii	!	!	!LO:TX:a:t=P:global:problem=ozn. dynamiki na środku pięciolinii	!	!	!	!	!	!	!	!
2B-/	4BB-\	e-	f	4dd/	2f\	.	(4BB-/	e-	f	2B-\	e-	f	2f\	e-	f	(4dd\	e-	f
.	4D\	.	.	4b-/	.	.	4D/)	.	.	.	.	.	.	.	.	4b-\)	.	.
!	!	!	!	!	!	!	!	!	!	!LO:TX:a:t=b	!	!	!	!	!	!	!	!
4B-/	4E-\	is	.	4g/	4e-/	.	4E-\	-is	.	4B-\	-is	.	4e-\	-is	.	4g/	-is	.
!	!	!	!	!	!	!	!	!	!	!LO:TX:a:t=c	!	!	!	!	!	!	!	!
4c/	4E-\	ac-	.	4ee-/	4g/	.	4E-\	ac-	.	4c\	ac-	.	4g\	ac-	.	4ee-\	ac-	.
*v	*v	*	*	*	*	*	*	*	*	*	*	*	*	*	*	*	*	*
*	*	*	*v	*v	*	*	*	*	*	*	*	*	*	*	*	*	*
!LO:LB:g=original	!	!	!LO:LB:g=original	!	!	!	!	!LO:LB:g=original	!	!	!	!	!	!LO:LB:g=original	!	!
=12	=12	=12	=12	=12	=12	=12	=12	=12	=12	=12	=12	=12	=12	=12	=12	=12
!	!	!	!LO:TX:t=P:problem=tekst niewidoczny	!	!	!	!	!LO:TX:a:t=b	!	!	!	!	!	!	!	!
2F\ 2B-	-cen-	.	2f\ 2dd	.	2F\	-cen-	.	2B-\	-cen-	.	2f\	-cen-	.	2dd\	-cen-	.
!LO:TX:a:t=P:4\right:problem	!	!	!LO:TX:t=P:4\right:problem	!	!	!	!	!	!	!	!	!	!	!	!	!
4F\ 4A	-de	.	4f\ 4cc	.	4F\	-de	.	4A\	-de	.	4f\	-de	.	4cc\	-de	.
4r	.	.	4r	.	4r	.	.	4r	.	.	4r	.	.	4r	.	.
=13	=13	=13	=13	=13	=13	=13	=13	=13	=13	=13	=13	=13	=13	=13	=13	=13
!	!	!	!	!	!	!	!	!LO:TX:a:t=a	!	!	!	!	!	!	!	!
4F\ 4A	qui	.	4f\ 4cc	.	4F\	qui	.	4A\	qui	.	4f\	qui	.	4cc\	qui	.
!	!	!	!	!	!	!	!	!LO:TX:a:t=a	!	!	!	!	!	!	!	!
!	!	!	!	!	!	!	!	!LO:N:vis=4	!	!	!	!	!	!	!	!
8F\ 8A	per	.	8f\ 8cc	.	8F\	per	.	8A\	per	.	8f\	per	.	8cc\	per	.
!	!	!	!	!	!	!	!	!LO:TX:a:t=a	!	!	!	!	!	!	!	!
!	!	!	!	!	!	!	!	!LO:N:vis=4	!	!	!	!	!	!	!	!
8F\ 8A	di-	.	8f\ 8cc	.	8F\	di-	.	8A\	.	.	8f\	di-	.	8cc\	di-	.
!	!	!	!	!	!	!	!	!LO:TX:a:t=a	!	!	!	!	!	!	!	!
4F\ 4A	-ver-	.	4f\ 4cc	.	4F\	-ver-	.	4A\	-ver-	.	4f\	-ver-	.	4cc\	-ver-	.
!	!	!	!	!	!	!	!	!LO:TX:a:t=h	!	!	!	!	!	!	!	!
4D\ 4Bn	-si-	.	4f\ 4dd	.	4D\	-si-	.	4Bn\	-si-	.	4f\	-si-	.	4dd\	-si-	.
=14	=14	=14	=14	=14	=14	=14	=14	=14	=14	=14	=14	=14	=14	=14	=14	=14
!	!	!	!	!	!	!	!	!LO:TX:a:t=c	!	!	!	!	!	!	!	!
2C\ 2c	-ta-	.	2g\ 2ee-	.	2C/	-ta-	.	2c\	-ta-	.	2g\	-ta-	.	2ee-\	-ta-	.
!LO:TX:a:t=P:4\right:problem	!	!	!	!	!	!	!	!LO:TX:a:t=c	!	!	!	!	!	!	!	!
4E-\ 4c	-tem	.	4g\ 4cc	.	4E-\	-tem	.	4c\	-tem	.	4g\	-tem	.	4cc\	-tem	.
!LO:TX:a:t=P:4\right:problem	!	!	!	!	!	!	!	!LO:TX:a:t=c	!	!	!	!	!	!	!	!
4F\ 4c	lin-	.	4f\ 4a	.	4E-\	lin-	.	4c\	lin-	.	4f\	lin-	.	4a\	lin-	.
=15	=15	=15	=15	=15	=15	=15	=15	=15	=15	=15	=15	=15	=15	=15	=15	=15
!	!	!	!	!	!	!	!	!LO:TX:a:t=b	!	!	!	!	!	!	!	!
2D\ 2B-	-gua-	.	2f\ 2b-	.	2D/	-gua-	.	2B-\	-gua-	.	2f\	-gua-	.	2b-\	-gua-	.
!	!	!	!	!	!	!	!	!LO:TX:a:t=a	!	!	!	!	!	!	!	!
4C\ 4A	-rum	.	4f\ 4cc	.	4C/	-rum	.	4A\	-rum	.	4f\	-rum	.	4cc\	-rum	.
!LO:TX:a:t=P:4\right:problem	!	!	!	!	!	!	!	!LO:TX:a:t=b	!	!	!	!	!	!	!	!
4BB-\ 4B-	cun-	.	4f\ 4dd	.	4BB-/	cun-	.	4B-\	cun-	.	4f\	cun-	.	4dd\	cun-	.
!	!	!	!	!	!LO:LB:g=original	!	!	!	!	!	!LO:LB:g=original	!	!	!	!	!
=16	=16	=16	=16	=16	=16	=16	=16	=16	=16	=16	=16	=16	=16	=16	=16	=16
!	!	!	!	!	!	!	!	!LO:TX:a:t=b	!	!	!	!	!	!	!	!
2F\ 2B-	-cta-	.	2f\ 2dd	.	2F\	-cta-	.	2B-\	-cta-	.	2f\	-cta-	.	2dd\	-cta-	.
!LO:TX:a:t=P:4\right:problem	!	!	!	!	!	!	!	!LO:TX:a:t=a	!	!	!	!	!	!	!	!
4F\ 4A	-rum	.	4f\ 4cc	.	4F\	-rum	.	4A\	-rum	.	4f\	-rum	.	4cc\	-rum	.
!	!	!	!LO:TX:a:t=V&colon;S&colon;	!	!	!	!	!	!	!	!	!	!	!	!	!
4r	.	.	4r	.	4r	.	.	4r	.	.	4r	.	.	4r	.	.
!	!	!	!	!	!	!	!	!LO:LB:g=original	!	!	!	!	!	!LO:LB:g=original	!	!
=17	=17	=17	=17	=17	=17	=17	=17	=17	=17	=17	=17	=17	=17	=17	=17	=17
!LO:TX:a:t=P:problem=brak taktów 17-20 (zapisane repetycją innym tuszem)	!	!	!LO:TX:a:t=P:problem=brak taktów 17-20 (zapisane repetycją innym tuszem)	!	!	!	!	!LO:TX:a:t=a	!	!	!	!	!	!	!	!
4F\yy 4Ayy	gen-	.	4f\yy 4ccyy	.	4F\	gen-	.	4A\	gen-	.	4f\	gen-	.	4cc\	gen-	.
!	!	!	!	!	!	!	!	!LO:TX:a:t=a	!	!	!	!	!	!	!	!
8F\yy 8Ayy	-tes	.	8f\yy 8ccyy	.	8F\	-tes	.	8A\	-tes	.	8f\	-tes	.	8cc\	-tes	.
!	!	!	!	!	!	!	!	!LO:TX:a:t=a	!	!	!	!	!	!	!	!
8F\yy 8Ayy	in	.	8f\yy 8ccyy	.	8F\	in	.	8A\	in	.	8f\	in	.	8cc\	in	.
!	!	!	!	!	!	!	!	!LO:TX:a:t=a	!	!	!	!	!	!	!	!
4F\yy 4Ayy	u-	.	4f\yy 4ccyy	.	4F\	u-	.	4A\	u-	.	4f\	u-	.	4cc\	u-	.
!	!	!	!	!	!	!	!	!LO:TX:a:t=h	!	!	!	!	!	!	!	!
4D\yy 4Bnyy	-ni-	.	4f\yy 4ddyy	.	4D\	-ni-	.	4Bn\	-ni-	.	4f\	-ni-	.	4dd\	-ni-	.
=18	=18	=18	=18	=18	=18	=18	=18	=18	=18	=18	=18	=18	=18	=18	=18	=18
!	!	!	!	!	!	!	!	!LO:TX:a:t=c	!	!	!	!	!	!	!	!
2C\yy 2cyy	-ta-	.	2g\yy 2ee-yy	.	(2C/	-ta-	.	2.c\	-ta-	.	2.g\	-ta-	.	(2ee-\	-ta-	.
4E-\yy 4cyy	.	.	4g\yy 4ccyy	.	4E-/)	.	.	.	.	.	.	.	.	4cc\)	.	.
!	!	!	!	!	!	!	!	!LO:TX:a:t=c	!	!	!	!	!	!	!	!
4F\yy 4cyy	-te	.	4f\yy 4ayy	.	4F\	-te	.	4c\	-te	.	4f\	-te	.	4a\	-te	.
=19	=19	=19	=19	=19	=19	=19	=19	=19	=19	=19	=19	=19	=19	=19	=19	=19
!	!	!	!	!	!	!	!	!LO:TX:a:t=b	!	!	!	!	!	!	!	!
2D\yy 2B-yy	fi-	.	2f\yy 2b-yy	.	4D\	fi-	.	4B-\	fi-	.	4f\	fi-	.	4b-\	fi-	.
!	!	!	!	!	!	!	!	!LO:TX:a:t=b	!	!	!	!	!	!	!	!
.	.	.	.	.	8D\	-de-	.	8B-\	-de-	.	8f\	-de-	.	8b-\	-de-	.
!	!	!	!	!	!	!	!	!LO:TX:a:t=b	!	!	!	!	!	!	!	!
.	.	.	.	.	8D\	-i	.	8B-\	-i	.	8f\	-i	.	8b-\	-i	.
!	!	!	!	!	!	!	!	!LO:TX:a:t=a	!	!	!	!	!	!	!	!
4C\yy 4Ayy	-dei	.	4f\yy 4ccyy	.	4C/	con-	.	4A\	con-	.	4f\	con-	.	4cc\	con-	.
!	!	!	!	!	!	!	!	!LO:TX:a:t=b	!	!	!	!	!	!	!	!
4BB-\yy 4B-yy	con-	.	4f\yy 4ddyy	.	4BB-/	-gre-	.	4B-\	-gre-	.	4f\	-gre-	.	4dd\	-gre-	.
!	!	!	!	!	!LO:LB:g=original	!	!	!	!	!	!	!	!	!	!	!
=20	=20	=20	=20	=20	=20	=20	=20	=20	=20	=20	=20	=20	=20	=20	=20	=20
!	!	!	!	!	!	!	!	!LO:TX:a:t=b	!	!	!	!	!	!	!	!
2F\yy 2B-yy	-grega-	.	2f\yy 2ddyy	.	2F\	-gas-	.	2B-\	-gas-	.	2f\	-gas-	.	2dd\	-gas-	.
!	!	!	!	!	!	!	!	!LO:TX:a:t=a	!	!	!	!	!	!	!	!
4F\yy 4Ayy	-sti.	.	4f\yy 4ccyy	.	4F\	-ti	.	4A\	-ti	.	4f\	-ti	.	4cc\	-ti	.
4ryy	.	.	4ryy	.	4r	.	.	4r	.	.	4r	.	.	4r	.	.
!LO:PB:g=original	!	!	!LO:PB:g=original	!	!	!	!	!	!	!	!LO:LB:g=original	!	!	!	!	!
=21	=21	=21	=21	=21	=21	=21	=21	=21	=21	=21	=21	=21	=21	=21	=21	=21
!	!	!	!	!	!	!	!	!LO:TX:a:t=d	!	!	!	!	!	!	!	!
2B-\ 2d	Ve-	.	2f/ 2b-	.	2B-\	Ve-	.	2d\	Ve-	.	2f\	Ve-	.	2b-\	Ve-	.
!LO:TX:a:t=P:4\right:problem=takty 21-28	!	!	!	!	!	!	!	!LO:TX:a:t=b	!	!	!	!	!	!	!	!
4BB-\ 4B-	-ni	.	4d/ 4a	.	4BB-/	-ni	.	4B-\	-ni	.	4d\	-ni	.	4f/	-ni	.
4r	.	.	4r	.	4r	.	.	4r	.	.	4r	.	.	4r	.	.
!LO:LB:g=original	!	!	!LO:LB:g=original	!	!	!	!	!LO:LB:g=original	!	!	!	!	!	!LO:LB:g=original	!	!
=22	=22	=22	=22	=22	=22	=22	=22	=22	=22	=22	=22	=22	=22	=22	=22	=22
*	*	*	*^	*	*	*	*	*	*	*	*	*	*	*	*	*
!	!	!	!	!	!	!	!	!	!LO:TX:a:t=e	!	!	!	!	!	!	!	!
2A\ 2e-	Ve-	.	2cc\	2f\	.	2A\	Ve-	.	2e-\	Ve-	.	2f\	Ve-	.	2cc\	Ve-	.
!	!	!	!	!	!	!	!	!	!LO:TX:a:t=c	!	!	!	!	!	!	!	!
4A\ 4c	-ni	.	4f/	4e-\	.	4A\	-ni	.	4c\	-ni	.	4e-\	-ni	.	4f/	-ni	.
4r	.	.	4r	4ryy	.	4r	.	.	4r	.	.	4r	.	.	4r	.	.
=23	=23	=23	=23	=23	=23	=23	=23	=23	=23	=23	=23	=23	=23	=23	=23	=23	=23
*^	*	*	*	*	*	*	*	*	*	*	*	*	*	*	*	*	*
!	!	!	!LO:HT:b	!	!	!	!	!	!	!LO:TX:a:t=d	!	!	!	!	!	!	!	!
4d\	4B-\	ve-	<	4b-/	4f\	.	4B-\	ve-	.	4d\	ve-	.	4f\	ve-	.	4b-\	ve-	.
!	!	!	!	!	!	!	!	!	!	!LO:TX:a:t=a	!	!	!	!	!	!	!	!
4A\	4F\	-ni	.	4cc/	4f\	.	4F\	-ni	.	4A\	-ni	.	4f\	-ni	.	4cc\	-ni	.
!	!	!	!	!	!	!	!	!	!	!LO:TX:a:t=b	!	!	!	!	!	!	!	!
4B-\	4BB-\	san-	.	4dd/	4f\	.	4BB-/	san-	.	4B-\	san-	.	4f\	San-	.	4dd\	san-	.
!	!	!	!	!	!	!	!	!	!	!LO:TX:a:t=b	!	!	!	!	!	!	!	!
8B-/L	4E-\	-cte	.	8ff/L	4g\	.	4E-\	-cte	.	(8B-\L	-cte	.	4g\	-cte	.	8ff\L	-cte	.
!	!	!	!	!	!	!	!	!	!	!LO:TX:a:t=c	!	!	!	!	!	!	!	!
8c/J	.	.	[	8ee-/J	.	.	.	.	.	8c\J)	.	.	.	.	.	8ee-\J	.	.
=24	=24	=24	=24	=24	=24	=24	=24	=24	=24	=24	=24	=24	=24=	=24	=24	=24	=24	=24
!	!	!	!	!	!	!	!	!	!	!LO:TX:a:t=d	!	!	!	!	!	!	!	!
4d/	2F\	Spi-	.	2dd\	2f\	.	2F\	Spi-	.	(4d\	Spi-	.	2f\	Spi-	.	2dd\	Spi-	.
!	!	!	!	!	!	!	!	!	!	!LO:TX:a:t=b	!	!	!	!	!	!	!	!
4B-/	.	.	.	.	.	.	.	.	.	4B-\)	.	.	.	.	.	.	.	.
!	!	!	!	!	!	!	!	!	!	!LO:TX:a:t=a	!	!	!	!	!	!	!	!
4A/	2F\	-ri-	.	2cc\	2e-\	.	2F\	-ri-	.	4A/	-ri-	.	2e-\	-ri-	.	2cc\	-ri-	.
!	!	!	!	!	!	!	!	!	!	!LO:TX:a:t=f	!	!	!	!	!	!	!	!
4F/	.	.	.	.	.	.	.	.	.	4F/	.	.	.	.	.	.	.	.
*	*	*	*	*v	*v	*	*	*	*	*	*	*	*	*	*	*	*	*
!	!	!	!	!	!	!LO:LB:g=original	!	!	!	!	!	!	!	!	!	!	!
=25	=25	=25	=25	=25	=25	=25	=25	=25	=25	=25	=25	=25	=25	=25	=25	=25	=25
!	!	!	!	!	!	!	!	!	!LO:TX:a:t=f	!	!	!	!	!	!	!	!
2F\	2BB-\	-tus	.	2d/ 2b-	.	2BB-/	-tus	.	2F/	-tus	.	2d\	-tus	.	2b-/	-tus	.
!	!	!	!LO:DY:b	!	!LO:DY:b	!	!	!	!LO:TX:a:t=b	!	!	!	!	!	!	!	!
4B-\	4BB-\	ve-	p	4d/ 4f	p	4BB-/	ve-	p	4B-\	ve-	p	4d\	ve-	p	4f/	ve-	p
!	!	!	!	!	!	!	!	!	!LO:TX:a:t=b	!	!	!	!	!	!	!	!
4B-\	4BB-\	-ni	.	4d/ 4f	.	4BB-/	-ni	.	4B-\	-ni	.	4d\	-ni	.	4f/	-ni	.
*v	*v	*	*	*	*	*	*	*	*	*	*	*	*	*	*	*	*
=26	=26	=26	=26	=26	=26	=26	=26	=26	=26	=26	=26	=26	=26	=26	=26	=26
!	!	!	!	!	!	!	!	!LO:TX:a:t=b	!	!	!	!	!	!	!	!
2BB-\ 2B-	San-	.	2e-/ 2g	.	2BB-/	San-	.	2B-\	San-	.	2e-\	San-	.	2g/	San-	.
!	!	!	!	!	!	!	!	!LO:TX:a:t=c	!	!	!	!	!	!	!	!
2BB-\ 2c	-cte	.	2e-/ 2a	.	2BB-/	-cte	.	2c\	-cte	.	2e-\	-cte	.	2a/	-cte	.
!	!	!	!	!	!	!	!	!	!	!	!LO:LB:g=original	!	!	!	!	!
=27	=27	=27	=27	=27	=27	=27	=27	=27	=27	=27	=27	=27	=27	=27	=27	=27
!	!	!	!	!	!	!	!	!LO:TX:a:t=a	!	!	!	!	!	!	!	!
2.BB-\ 2.A	Spi-	.	2.e-/ 2.cc	.	2.BB-/	Spi-	.	2A\	Spi-	.	2.e-\	Spi-	.	2.cc\	Spi-	.
!	!	!	!	!	!	!	!	!LO:TX:a:t=b	!	!	!	!	!	!	!	!
.	.	.	.	.	.	.	.	4B-\	.	.	.	.	.	.	.	.
4BB-\ 4F 4B-	-ri-	.	4d/ 4b-	.	4BB-/ 4F	-ri-	.	4r	.	.	4d\	-ri-	.	4b-\	-ri-	.
=28	=28	=28	=28	=28	=28	=28	=28	=28	=28	=28	=28	=28	=28	=28	=28	=28
!	!	!	!	!	!	!	!	!LO:TX:a:t=b	!	!	!	!	!	!	!	!
1BB- 1F 1B-	-tus	.	1d; 1b-	.	1BB-; 1F	-tus	.	1B-;	-tus	.	1d;	-tus	.	1b-;	-tus	.
*	*	*	*	*	*	*	*	*	*	*	*	*	*	*	*	*
==	==	==	==	==	==	==	==	==	==	==	==	==	==	==	==	==
*-	*-	*-	*-	*-	*-	*-	*-	*-	*-	*-	*-	*-	*-	*-	*-	*-
!!!system-decoration: [(g1)][(g2)]
!!!ENC: Anna Matuszewska
!!!END: 2021-01-02
!!!ENC: Tomasz Grochalski
!!!END: 2020-12-31
